frontend/src/assets/door.svg

<svg xmlns="http://www.w3.org/2000/svg" viewBox="0 0 24 24"><path d="M20 23h2v1h-20v-1h2v-23h16v23zm-1-22h-14v22h14l-10-1.954v-18.015l10-2.031zm-7 11h-2v1h2v-1z"/></svg>

<svg xmlns="http://www.w3.org/2000/svg" id="door-icon" viewBox="0 0 24 24">
	<title>Logout</title>
	<path d="M 20 24 L 4 24 L 4 0 L 20 0 L 20 24 Z M 19 1 L 5 1 L 5 23 L 19 23 L 9 21.046 L 9 3.031 L 19 1 Z M 12 12 L 10 12 L 10 13 L 12 13 L 12 12 Z"/>
</svg>
